www/assets/icons/insights.svg

<svg xmlns="http://www.w3.org/2000/svg" width="24" height="24" viewBox="0 0 24 24" fill='currentColor'><path d="M21 8.5c-1.45 0-2.26 1.44-1.93 2.51l-3.55 3.56c-.3-.09-.74-.09-1.04 0l-2.55-2.55c.34-1.07-.47-2.52-1.93-2.52-1.45 0-2.27 1.44-1.93 2.52l-4.56 4.55C2.44 16.24 1 17.05 1 18.5c0 1.1.9 2 2 2 1.45 0 2.26-1.44 1.93-2.51l4.55-4.56c.3.09.74.09 1.04 0l2.55 2.55c-.34 1.07.47 2.52 1.93 2.52 1.45 0 2.27-1.44 1.93-2.52l3.56-3.55c1.07.33 2.51-.48 2.51-1.93 0-1.1-.9-2-2-2"/><path d="m15 9.5.94-2.07L18 6.5l-2.06-.93L15 3.5l-.92 2.07L12 6.5l2.08.93zm-11.5 2 .5-2L6 9l-2-.5-.5-2-.5 2L1 9l2 .5z"/></svg>

<svg width="24" height="24" viewBox="0 0 24 24" xmlns="http://www.w3.org/2000/svg" fill='currentColor'><path d="M21 8.5C19.55 8.5 18.74 9.94 19.07 11.01L15.52 14.57C15.22 14.48 14.78 14.48 14.48 14.57L11.93 12.02C12.27 10.95 11.46 9.5 10 9.5C8.55 9.5 7.73 10.94 8.07 12.02L3.51 16.57C2.44 16.24 1 17.05 1 18.5C1 19.6 1.9 20.5 3 20.5C4.45 20.5 5.26 19.06 4.93 17.99L9.48 13.43C9.78 13.52 10.22 13.52 10.52 13.43L13.07 15.98C12.73 17.05 13.54 18.5 15 18.5C16.45 18.5 17.27 17.06 16.93 15.98L20.49 12.43C21.56 12.76 23 11.95 23 10.5C23 9.4 22.1 8.5 21 8.5Z"/><path d="M15 9.5L15.94 7.43L18 6.5L15.94 5.57L15 3.5L14.08 5.57L12 6.5L14.08 7.43L15 9.5Z"/><path d="M3.5 11.5L4 9.5L6 9L4 8.5L3.5 6.5L3 8.5L1 9L3 9.5L3.5 11.5Z"/></svg>
